X:1
T:Title
%%score { ( 1 3 ) | ( 2 4 ) }
L:1/8
Q:1/4=110
M:6/8
K:Eb
V:1 treble nm="Grand Piano"
V:3 treble 
V:2 bass 
V:4 bass 
V:1
 E2 E E2 F | G3 [GB]3 | [GB]2 [Ac] [GB]2 [EG] | [DF]6 | E2 E E2 F | G3 [GB]3 | B2 =A d2 c | [DB]6 | %8
w: S.~W.~Straub * * *||||||||
 [Ad]2 [Ad] [Ad]2 [CAc] | [EAc]3 [B,GB]3 | [Ad]2 [Ad] [Ad]2 [DAc] | [Ac]3 B3 | %12
w: ||||
 [G,E]2 [G,E] [G,E]2 [B,DF] |[M:15/16] [B,EG]3 [Ec]3/2- [Ec]3 | %14
w: ||
[M:3/4] [EG]2 [B,GB] [B,FA]2 [A,DF] | [G,E]6 |] %16
w: ||
V:2
 [E,G,]2 [E,G,] [E,G,]2 [E,A,E] | [E,B,E]3 [E,E]3 | [E,E]2 [E,E] [E,E]2 [E,B,] | [B,,B,]6 | %4
 [E,G,]2 [E,G,] [E,G,]2 [E,A,E] | [E,B,E]3 [E,G,]3 | [F,B,D]2 [F,C] [F,B,F]2 [F,=A,E] | [B,,B,]6 | %8
 [B,,B,]2 [B,,B,] [B,,B,]2 B,, | E,3 E,3 | [B,,B,]2 [B,,B,] [B,,B,]2 B,, | z3 G3 | E,2 E, E,2 B,, | %13
[M:15/16] E,3 A,,3/2- A,,3 |[M:3/4] B,,2 B,, B,,2 B,, | E,6 |] %16
V:3
 x6 | x6 | x6 | x6 | x6 | x6 | x6 | x6 | x6 | x6 | x6 | E6 | x6 |[M:15/16] x15/2 |[M:3/4] x6 | %15
 x6 |] %16
V:4
 x6 | x6 | x6 | x6 | x6 | x6 | x6 | x6 | x6 | x6 | x6 | E,6 | x6 |[M:15/16] x15/2 |[M:3/4] x6 | %15
 x6 |] %16

